dist/img/svg/i-truck-4.svg

<svg width="48" height="48" viewBox="0 0 48 48" fill="none" xmlns="http://www.w3.org/2000/svg">
    <path d="M43.9961 37.001H46.9966" stroke="white" stroke-width="1.5" stroke-miterlimit="10"/>
    <path d="M39.4997 46.9969C41.4338 46.9969 43.0018 45.4289 43.0018 43.4948C43.0018 41.5606 41.4338 39.9927 39.4997 39.9927C37.5655 39.9927 35.9976 41.5606 35.9976 43.4948C35.9976 45.4289 37.5655 46.9969 39.4997 46.9969Z" stroke="white" stroke-width="1.5" stroke-miterlimit="10"/>
    <path d="M10.9992 46.9969C12.9333 46.9969 14.5013 45.4289 14.5013 43.4948C14.5013 41.5606 12.9333 39.9927 10.9992 39.9927C9.06502 39.9927 7.49707 41.5606 7.49707 43.4948C7.49707 45.4289 9.06502 46.9969 10.9992 46.9969Z" stroke="white" stroke-width="1.5" stroke-miterlimit="10"/>
    <path d="M20.9953 46.9969C22.9294 46.9969 24.4974 45.4289 24.4974 43.4948C24.4974 41.5606 22.9294 39.9927 20.9953 39.9927C19.0611 39.9927 17.4932 41.5606 17.4932 43.4948C17.4932 45.4289 19.0611 46.9969 20.9953 46.9969Z" stroke="white" stroke-width="1.5" stroke-miterlimit="10"/>
    <path d="M42.993 42.9933H46.9967V31.9942L43.433 20.4144C43.1778 19.5784 42.4035 19.0065 41.5236 19.0065H32.9971V38.0041V43.0021H35.9976" stroke="white" stroke-width="1.5" stroke-miterlimit="10" stroke-linejoin="round"/>
    <path d="M46.9968 31.9941L37.9951 28.9935V23.0012H43.9962" stroke="white" stroke-width="1.5" stroke-miterlimit="10" stroke-linejoin="round"/>
    <path d="M7.99877 42.9932H4.00391V37.9952" stroke="white" stroke-width="1.5" stroke-miterlimit="10" stroke-linejoin="round"/>
    <path d="M17.9944 42.9932H13.9995" stroke="white" stroke-width="1.5" stroke-miterlimit="10" stroke-linejoin="round"/>
    <path d="M29.9967 42.9932H23.9956" stroke="white" stroke-width="1.5" stroke-miterlimit="10" stroke-linejoin="round"/>
    <path d="M24.013 17.8097L10.0046 13.9996H5.47297L0.994141 21.7518L3.29955 25.7555L13.5507 36.0066H21.0565C22.8427 36.0066 24.497 35.0563 25.3857 33.5076L27.8055 29.3192C28.6942 27.7705 28.6942 25.8698 27.8055 24.3212L24.013 17.8097Z" stroke="white" stroke-width="1.5" stroke-miterlimit="10" stroke-linecap="round" stroke-linejoin="round"/>
    <path d="M3.30811 25.7467L9.99555 13.9996" stroke="white" stroke-width="1.5" stroke-miterlimit="10" stroke-linejoin="round"/>
    <path d="M13.5596 35.9978L24.0131 17.8097" stroke="white" stroke-width="1.5" stroke-miterlimit="10" stroke-linejoin="round"/>
</svg>

<svg width="48" height="48" viewBox="0 0 48 48" fill="none" xmlns="http://www.w3.org/2000/svg"><path d="M43.996 37.001h3M39.5 46.997a3.502 3.502 0 100-7.004 3.502 3.502 0 000 7.004zm-28.5 0a3.502 3.502 0 100-7.004 3.502 3.502 0 000 7.004zm9.995 0a3.502 3.502 0 100-7.004 3.502 3.502 0 000 7.004z" stroke="#fff" stroke-width="1.5" stroke-miterlimit="10"/><path d="M42.993 42.993h4.004V31.994l-3.564-11.58a1.993 1.993 0 00-1.91-1.408h-8.526v23.996h3" stroke="#fff" stroke-width="1.5" stroke-miterlimit="10" stroke-linejoin="round"/><path d="M46.997 31.994l-9.002-3V23h6.001M7.999 42.993H4.004v-4.998m13.99 4.998H14m15.997 0h-6.001" stroke="#fff" stroke-width="1.5" stroke-miterlimit="10" stroke-linejoin="round"/><path d="M24.013 17.81L10.005 14H5.473L.994 21.752 3.3 25.756l10.25 10.25h7.506a4.99 4.99 0 004.33-2.498l2.42-4.189a5.018 5.018 0 000-4.998l-3.793-6.511z" stroke="#fff" stroke-width="1.5" stroke-miterlimit="10" stroke-linecap="round" stroke-linejoin="round"/><path d="M3.308 25.747L9.996 14m3.564 21.998L24.013 17.81" stroke="#fff" stroke-width="1.5" stroke-miterlimit="10" stroke-linejoin="round"/></svg>
